svg/remove-shield.svg

<?xml version="1.0" encoding="UTF-8"?>
<svg xmlns="http://www.w3.org/2000/svg" xmlns:xlink="http://www.w3.org/1999/xlink" width="32" height="32" viewBox="0 0 32 32">
<path fill-rule="nonzero" fill="rgb(0%, 0%, 0%)" fill-opacity="1" d="M 29.578125 5.023438 C 24.839844 3.984375 22.042969 2.511719 20 1.433594 C 18.414062 0.601562 17.265625 0 16 0 C 14.734375 0 13.585938 0.601562 12 1.433594 C 9.957031 2.511719 7.160156 3.984375 2.421875 5.023438 L 1.921875 5.132812 L 1.921875 5.648438 C 1.921875 25.140625 15.59375 31.683594 15.734375 31.746094 L 16.011719 31.875 L 16.289062 31.734375 C 16.425781 31.664062 30.078125 24.496094 30.078125 5.648438 L 30.078125 5.132812 Z M 20.933594 18.109375 C 21.117188 18.292969 21.171875 18.566406 21.074219 18.804688 C 20.972656 19.046875 20.738281 19.203125 20.480469 19.199219 C 20.3125 19.203125 20.148438 19.132812 20.027344 19.011719 L 16.320312 15.304688 L 12.613281 19.011719 C 12.492188 19.132812 12.332031 19.203125 12.160156 19.203125 C 11.988281 19.203125 11.828125 19.132812 11.707031 19.011719 C 11.585938 18.894531 11.519531 18.730469 11.519531 18.5625 C 11.519531 18.394531 11.585938 18.230469 11.707031 18.109375 L 15.414062 14.398438 L 11.707031 10.691406 C 11.585938 10.574219 11.519531 10.410156 11.519531 10.242188 C 11.519531 10.070312 11.585938 9.910156 11.707031 9.789062 C 11.957031 9.539062 12.363281 9.539062 12.613281 9.789062 L 16.320312 13.496094 L 20.027344 9.789062 C 20.277344 9.539062 20.683594 9.539062 20.933594 9.789062 C 21.183594 10.039062 21.183594 10.441406 20.933594 10.691406 L 17.226562 14.398438 Z M 20.933594 18.109375 "/>
</svg>

<svg role="img" viewBox="0 0 32 32" xmlns="http://www.w3.org/2000/svg"><path d="M29.578 5.023C24.84 3.984 22.043 2.512 20 1.433 18.414.603 17.266 0 16 0s-2.414.602-4 1.434c-2.043 1.078-4.84 2.55-9.578 3.59l-.5.109v.515c0 19.493 13.672 26.036 13.812 26.098l.278.129.277-.14c.137-.07 13.79-7.239 13.79-26.087v-.515ZM20.934 18.11a.64.64 0 1 1-.907.903l-3.707-3.707-3.707 3.707a.64.64 0 0 1-.453.191.64.64 0 0 1-.453-.191.63.63 0 0 1-.187-.45c0-.167.066-.332.187-.453l3.707-3.71-3.707-3.708a.635.635 0 0 1 0-.902c.25-.25.656-.25.906 0l3.707 3.707 3.707-3.707c.25-.25.657-.25.907 0s.25.652 0 .902l-3.707 3.707Zm0 0" fill="rgb(0%, 0%, 0%)"/></svg>
